X: 4
T: Martin Rochford's
R: reel
M: 4/4
L: 1/8
K: Fmaj
|F2 CD FGA=B-|cAdA cAGA|F2 CD FGd=B-|cAGc ADDE-||F2 CD FGA=B-|cAdA cAGA|FDCD FGdc-|cAGc ADDe-|||f3 f edcd|A~d3 Adde|f2 {a}gf edcA|cAGc ADDe||{g}f3 f edcd|Addc d3 e-|f2 af eg{a}ge|cAGc ADDE-|||F2 CD FGA=B-|cAdA cAGA|FDCD FGd=B-|cAGc ADDE-||F4 -FGAc|cAdA cAGA|FDCD FAd=B-|cAGc ADDe-|||f3 f edcd|A~d3 Adde|f2 {a}gf edcA|c/c/A Gc ADDe||f3 f edcd|Ad{e}dc d3 f|fg ag eg{a}ge|cAGc ADDE-||


Tune 1062	Setting 14288

